X: 24882
T: Magnificent Six
R: jig
M: 6/8
K: Adorian
EA AB c/B/A|EA FA GD|EA AB cd|e/g/e dB cA:|
AB cd eA|ge dc BG|AB cd ea|ge dB BA:|
e/g/e dB A2|e2 dB GABd|eg dB Aa|ge dB Bd:|

